public/avatar/body/121.svg

<svg xmlns:xlink="http://www.w3.org/1999/xlink" height="82" width="84.85" xmlns="http://www.w3.org/2000/svg"><g transform="translate(37.4 42.25)"><use height="38" transform="translate(-11.95 -17.45)" width="32.05" xlink:href="#a"/><use height="38.95" transform="translate(-12.45 -17.95)" width="33.05" xlink:href="#b"/><use height="31.65" transform="translate(-17.65 -2.15)" width="43.65" xlink:href="#c"/></g><defs><path d="M27.35 7.4q2.15 4.15 3.55 8.75 1.45 4.7 1.15 9.5-.35 4.95-4.2 8.1-3.8 3.2-8.75 4.05l-2.6.2q-3.6 0-7.05-1.15-4.65-1.6-7.1-5.5Q-.2 27.4.05 23q.2-4.4 2-9.3Q3.85 8.75 7 5.05 10.1 1.3 14.7.1l1.8-.1q1.9.05 3.7.8 4.75 2.05 7.15 6.6" fill="#fff" fill-rule="evenodd" transform="translate(-.05)" id="d"/><path d="M27.35 7.4Q24.95 2.85 20.2.8 17.55-.3 14.7.1 10.1 1.3 7 5.05q-3.15 3.7-4.95 8.65-1.8 4.9-2 9.3-.25 4.4 2.3 8.35 2.45 3.9 7.1 5.5 4.65 1.55 9.65.95 4.95-.85 8.75-4.05 3.85-3.15 4.2-8.1.3-4.8-1.15-9.5-1.4-4.6-3.55-8.75Z" fill="none" stroke="#010102" stroke-linecap="round" stroke-linejoin="round" transform="translate(.45 .5)" id="e"/><use height="38" width="32.05" xlink:href="#d" id="a"/><use height="38.95" width="33.05" xlink:href="#e" id="b"/><g id="c" fill-rule="evenodd"><path d="M19.4-.5 20 2l.9.2.15.9L25-1.4l-3.6-.4-2.1.5-.1-.85L26-2l-5 6.9-.1-.45-2.05 1.05 1.65-1.75-.1-.95-.05.25q-1.65 1.05-3.1 2.3l-.9 1L15 7.45l-3.25.25 7.95-5.65-.3-2.55m-1.8 11.25 1.1.55-.4.2-.7-.75m2.1 2.6 1.2 3.5q.6 2.5.85 5.1l-4.85-2.4-1.25 3.55-2.1 4.2-3.4-2.15-1.2-.95-4.7 5.3-4.85-5.05-4.9 2.4-3.3-7.05-4.5 1.75.4-4.45.95-5.05.45.1.1.4-.6.6.7.6-.6 2.75-.15.8-.7 3.2.5-.25v.1l.2-.2 3.95-2.05 1.25 3.15.2 1.15 1.7 3.8 4.55-2.9 4.3 5.25 4.6-5.45 4.65 3.1 3.5-7.3 4.45 1.7-2.05-6.65.65-.6M-9.9 7.1l-2.35-2.3-.4.1-5-6.9 6.65-.05.35 1.15-.8 3.15q2.2 2.05 4.7 3.7 1.7 1.1 3.7 1.8l-3.45-.1-.65-.2-1.45-2.1-1.65-1.5-2.1-1.15-.25 1.1 2.7 3.3M1.35 9.3l2.9 1 3.1-1.05L5.25 11l-.6.85-.2.4-1.8-2.15-1.3-.8M-11.2-.35l.2-.9-3.35-.3-2.45-.25.4.65 3.45 3.7.65-.45.55.05.45-2.05.1-.45" fill="#003a41" transform="translate(17.65 2.15)"/><path d="m19.4-.5-.2-.8.1.05 4 .55 1.7-.7-3.95 4.5-.15-.9L20 2l-.6-2.5m-.7 6.4-1.55 4.35.45.5.7.75-2.25 1.45-.3-.95q-.3-.4-.7-.4l-.9-.1-.4.9.55 1.25.1.05-.5.05-9.6.8-2.3.3-.6.2q.3-.75-.25-1.45l-.3-.25-1.6.05-.35.85.2.5.15.5-2.45-.75-2.6-.75.9-1.25-.35-.7 5.75-.65 3.6 2.1h.2l4.05-1.4.1.6.55 1 .45.1 1.3-.95-.95-1.25 2.5-1.4 2.9.15 3.5-4.2m.95 6.95.05.5-.65.6 2.05 6.65-4.45-1.7-3.5 7.3-4.65-3.1-4.6 5.45-4.3-5.25-4.55 2.9-.05-.3.95-3.95q.4-2.25.5-4.5l-1.35-.95 5.7 1L4 28.3l4.2-10 4.75 6.95 1.75-4.15.25-.65 1.1-2.75 3.25 1.45 1.45.5-2.2-5.8 1.1-1m-29.85-1.6.95-1.4-.65-2.75-2.7-3.3.25-1.1-.1.75-.15.35 2.05 1.2 4 6.3-.3.05-.45.1-.1 1.25v.2l-2.8-1.65m7.3-3.5 3.25.9-1.05-.2-2.2-.7m14.45 0 .2-.05L15 7.45l1.35-1.1-1 1.45-3.8-.05m-7.1 4.5-.25.55-.95-1.65h.05l-.1-.1-.55-.95 1.8 2.15m4.2 7.95.05 2.75 4 2.6-3.05-3.4-1-1.95m-8.2-2.3-1 .1-.1 1.6 4.3 8-3.2-9.7m-14.8-19.45 3.35.3-.2.9v-.85l-3.15-.35M-11.3.1l-.45 2.05-.55-.05-.65.45-3.45-3.7L-11.3.1m1.05 3.75-1.3-.6-.8-.55 2.1 1.15m-.7 9.7-.95 2.95.6-2.75-.7-.6.6-.6 2.05 1.7-.1-.05-.2-.1-.75-.4q-.3-.15-.55-.25v.1m-1.1 3.75-.15 2.15-.05.4.05-.05-.05.45-.5.25.7-3.2m5.75-1.35-1.4.5.85 4.8-1.25-3.15-3.95 2.05 3.3-5.5 2.45 1.3m3.4 7.45q.3.35.8.35t.85-.35q.3-.35.3-.85t-.3-.85q-.35-.35-.85-.35t-.8.35q-.35.35-.35.85l.35.85" fill="#7adffd" transform="translate(17.65 2.15)"/><path d="m18.85 5.5-.15.4-3.5 4.2-2.9-.15-2.5 1.4h-.15l-1.3.5-4.05 1.4h-.2l-3.6-2.1-5.75.65-1.3-.5-4-6.3L-8 6.45l-.6-1.1 1.45 2.1.65.2 9.75 3.5.95 1.65.25-.55.2-.4q2.35-1.1 4.8-2 2.9-1.1 5.9-2.05l1-1.45.9-1q1.45-1.25 3.1-2.3l.05-.25.1.95-1.65 1.75M.35 8.65l1 .65 1.3.8.55.95-3.9-2.6 1.05.2m8.3 11.55 1 1.95 3.05 3.4-4-2.6-.05-2.75M-4.9 16.5l1.35.95q-.1 2.25-.5 4.5L-5 25.9l-1.3-9.1-1.15.1.8 5.5-.2-1.15-.85-4.8 1.4-.5.45-.15.95.7m5.35 1.4 3.2 9.7-4.3-8 .1-1.6 1-.1m-12-14.65-.65-.3-.25.5.1-.75.8.55m-.35 13.25.95-2.95-1.25 5.9.15-2.15.15-.8m2.45-2.3.1.05.6.4-3.3 5.5-.2.2v-.1l.05-.45 2.75-5.6" fill="#b5ecfe" transform="translate(17.65 2.15)"/><path d="m25-1.4-1.7.7-4-.55-.1-.05h.1l2.1-.5 3.6.4M-3.05 7.75h.15l2.2.7 3.9 2.6.1.1h-.05l-9.75-3.5 3.45.1m10.4 1.5q.3-.25.65-.3l3.55-1.2 3.8.05q-3 .95-5.9 2.05-2.45.9-4.8 2l.6-.85 2.1-1.75M-8.6 5.35l.6 1.1L-10.55 5l-2.05-1.2.15-.35.25-.5.65.3 1.3.6 1.65 1.5m16.95 6.5 1.3-.5.4 1.05-1.1.6-.5-.55-.1-.6m5.4.55.4-.9.9.1.4.3-.05 1.2-1.1-.05-.55-.65m-14.5 1 1.55.25q.5.2.4.5l-.75.45-1.35.15-.2-.5.35-.85m4.45 5.35.6-1 .35-.05.55 1.95H3.85l-.15-.9M-5 25.9l.05.3-1.7-3.8-.8-5.5 1.15-.1 1.3 9.1m18.8-7.2.45 1.8-1.4.3.2-2.25.75.15m-25-19.05-.1.45-5.1-1.25-.4-.65 2.45.25 3.15.35v.85m3.8 13.05.1-1.25.45-.1 1.25 1-.45.95-1.1-.25-.25-.35m-4.8 6.75 1.25-5.9v-.1q.25.1.55.25l.75.4.2.1-2.75 5.6-.05.05.05-.4m9 2.95.25-.6q.25-.3.6-.3t.6.3q.25.25.25.6l-.25.65-.6.25-.6-.25-.25-.65" fill="#fdfeff" transform="translate(17.65 2.15)"/><path d="m18.7 11.3 1.2-.6.15 1.7-.4.45-1.1 1 2.2 5.8-1.45-.5-3.25-1.45-1.1 2.75-1.15-1.75-.75-.15-.2 2.25.55.7 1.3-.4-1.75 4.15L8.2 18.3 4 28.3.8 17.5l-5.7-1-.95-.7-.45.15-2.45-1.3-.6-.4-2.05-1.7-.1-.4.15-1.45q.6.3 1.15.55l2.8 1.65.5.6 1.1.25 2.6.75-1.85-.1Q-3.3 16-1.1 16.8l2.9-.25q1.15-.55 1.75-1.6L2 14.85l2.3-.3 9.6-.8-7.25 1.75 6.5 1.65 3.2-1.75 3.5 3.1-1.7-5.8-3.05.75.95-.5 2.25-1.45.4-.2M4.3 17.75l-.4.3-.2.7.15.9.5.85L5.9 20l.15-.45-.7-1.6-.7-.25-.35.05" fill="#5fd4f4" transform="translate(17.65 2.15)"/><path d="m-6.55 11.3 1.3.5.35.7-.9 1.25-1.1-.25-.5-.6v-.2l.25.35 1.1.25.45-.95-1.25-1 .3-.05m16.2.05h.15l.95 1.25-1.3.95-.45-.1-.55-1 .5.55 1.1-.6-.4-1.05m5.4.25q.4 0 .7.4l.3.95-.95.5 3.05-.75 1.7 5.8-3.5-3.1-3.2 1.75-6.5-1.65 7.25-1.75.5-.05-.1-.05-.55-1.25.55.65 1.1.05.05-1.2-.4-.3m-15.8 1.8 1.6-.05.3.25q.55.7.25 1.45l.6-.2 1.55.1q-.6 1.05-1.75 1.6l-2.9.25q-2.2-.8-3.95-2.4l1.85.1 2.45.75-.15-.5 1.35-.15.75-.45q.1-.3-.4-.5l-1.55-.25m4.45 5.35.2-.7.4-.3-.6 1m.95-1.05.7.25.7 1.6-.15.45-1.55.5-.5-.85H5.2l-.55-1.95m10.3 2.75-.25.65-1.3.4-.55-.7 1.4-.3-.45-1.8 1.15 1.75M-2.9 23.4l-.35-.85q0-.5.35-.85.3-.35.8-.35t.85.35q.3.35.3.85t-.3.85q-.35.35-.85.35t-.8-.35m-.3-1 .25.65.6.25.6-.25.25-.65q0-.35-.25-.6-.25-.3-.6-.3t-.6.3l-.25.6" fill="#52b4d0" transform="translate(17.65 2.15)"/></g></defs></svg>

<?xml version="1.0" encoding="UTF-8" standalone="no"?>
<svg xmlns:xlink="http://www.w3.org/1999/xlink" height="82.0px" width="84.85px" xmlns="http://www.w3.org/2000/svg">
  <g transform="matrix(1.0, 0.0, 0.0, 1.0, 37.4, 42.25)">
    <use height="38.0" transform="matrix(1.0, 0.0, 0.0, 1.0, -11.95, -17.45)" width="32.05" xlink:href="#sprite0"/>
    <use height="38.95" transform="matrix(1.0, 0.0, 0.0, 1.0, -12.45, -17.95)" width="33.05" xlink:href="#sprite1"/>
    <use height="31.65" transform="matrix(1.0, 0.0, 0.0, 1.0, -17.65, -2.15)" width="43.65" xlink:href="#shape2"/>
  </g>
  <defs>
    <g id="sprite0" transform="matrix(1.0, 0.0, 0.0, 1.0, -0.05, 0.0)">
      <use height="38.0" transform="matrix(1.0, 0.0, 0.0, 1.0, 0.05, 0.0)" width="32.05" xlink:href="#shape0"/>
    </g>
    <g id="shape0" transform="matrix(1.0, 0.0, 0.0, 1.0, -0.05, 0.0)">
      <path d="M27.35 7.4 Q29.5 11.55 30.9 16.15 32.35 20.85 32.05 25.65 31.7 30.6 27.85 33.75 24.05 36.95 19.1 37.8 L16.5 38.0 Q12.9 38.0 9.45 36.85 4.8 35.25 2.35 31.35 -0.2 27.4 0.05 23.0 0.25 18.6 2.05 13.7 3.85 8.75 7.0 5.05 10.1 1.3 14.7 0.1 L16.5 0.0 Q18.4 0.05 20.2 0.8 24.95 2.85 27.35 7.4" fill="#ffffff" fill-rule="evenodd" stroke="none"/>
    </g>
    <g id="sprite1" transform="matrix(1.0, 0.0, 0.0, 1.0, 0.45, 0.5)">
      <use height="38.95" transform="matrix(1.0, 0.0, 0.0, 1.0, -0.45, -0.5)" width="33.05" xlink:href="#shape1"/>
    </g>
    <g id="shape1" transform="matrix(1.0, 0.0, 0.0, 1.0, 0.45, 0.5)">
      <path d="M27.35 7.4 Q24.95 2.85 20.2 0.8 17.55 -0.3 14.7 0.1 10.1 1.3 7.0 5.05 3.85 8.75 2.05 13.7 0.25 18.6 0.05 23.0 -0.2 27.4 2.35 31.35 4.8 35.25 9.45 36.85 14.1 38.4 19.1 37.8 24.05 36.95 27.85 33.75 31.7 30.6 32.05 25.65 32.35 20.85 30.9 16.15 29.5 11.55 27.35 7.4 Z" fill="none" stroke="#010102" stroke-linecap="round" stroke-linejoin="round" stroke-width="1.0"/>
    </g>
    <g id="shape2" transform="matrix(1.0, 0.0, 0.0, 1.0, 17.65, 2.15)">
      <path d="M19.4 -0.5 L20.0 2.0 20.9 2.2 21.05 3.1 25.0 -1.4 21.4 -1.8 19.3 -1.3 19.2 -2.15 26.0 -2.0 21.0 4.9 20.9 4.45 18.85 5.5 20.5 3.75 20.4 2.8 20.35 3.05 Q18.7 4.1 17.25 5.35 L16.35 6.35 15.0 7.45 11.75 7.7 19.7 2.05 19.4 -0.5 M17.6 10.75 L18.7 11.3 18.3 11.5 17.6 10.75 M19.7 13.35 L20.9 16.85 Q21.5 19.35 21.75 21.95 L16.9 19.55 15.65 23.1 13.55 27.3 10.15 25.15 8.95 24.2 4.25 29.5 -0.6 24.45 -5.5 26.85 -8.8 19.8 -13.3 21.55 -12.9 17.1 -11.95 12.05 -11.5 12.15 -11.4 12.55 -12.0 13.15 -11.3 13.75 -11.9 16.5 -12.05 17.3 -12.75 20.5 -12.25 20.25 -12.25 20.35 -12.05 20.15 -8.1 18.1 -6.85 21.25 -6.65 22.4 -4.95 26.2 -0.4 23.3 3.9 28.55 8.5 23.1 13.15 26.2 16.65 18.9 21.1 20.6 19.05 13.95 19.7 13.35 M-9.9 7.1 L-12.25 4.8 -12.65 4.9 -17.65 -2.0 -11.0 -2.05 -10.65 -0.9 -11.45 2.25 Q-9.25 4.3 -6.75 5.95 -5.05 7.05 -3.05 7.75 L-6.5 7.65 -7.15 7.45 -8.6 5.35 -10.25 3.85 -12.35 2.7 -12.6 3.8 -9.9 7.1 M1.35 9.3 L4.25 10.3 7.35 9.25 5.25 11.0 4.65 11.85 4.45 12.25 2.65 10.1 1.35 9.3 M-11.2 -0.35 L-11.0 -1.25 -14.35 -1.55 -16.8 -1.8 -16.4 -1.15 -12.95 2.55 -12.3 2.1 -11.75 2.15 -11.3 0.1 -11.2 -0.35" fill="#003a41" fill-rule="evenodd" stroke="none"/>
      <path d="M19.4 -0.5 L19.2 -1.3 19.3 -1.25 23.3 -0.7 25.0 -1.4 21.05 3.1 20.9 2.2 20.0 2.0 19.4 -0.5 M18.7 5.9 L17.15 10.25 17.6 10.75 18.3 11.5 16.05 12.95 15.75 12.0 Q15.45 11.6 15.05 11.6 L14.15 11.5 13.75 12.4 14.3 13.65 14.4 13.7 13.9 13.75 4.3 14.55 2.0 14.85 1.4 15.05 Q1.7 14.3 1.15 13.6 L0.85 13.35 -0.75 13.4 -1.1 14.25 -0.9 14.75 -0.75 15.25 -3.2 14.5 -5.8 13.75 -4.9 12.5 -5.25 11.8 0.5 11.15 4.1 13.25 4.3 13.25 8.35 11.85 8.45 12.45 9.0 13.45 9.45 13.55 10.75 12.6 9.8 11.35 12.3 9.95 15.2 10.1 18.7 5.9 M19.65 12.85 L19.7 13.35 19.05 13.95 21.1 20.6 16.65 18.9 13.15 26.2 8.5 23.1 3.9 28.55 -0.4 23.3 -4.95 26.2 -5.0 25.9 -4.05 21.95 Q-3.65 19.7 -3.55 17.45 L-4.9 16.5 0.8 17.5 4.0 28.3 8.2 18.3 12.95 25.25 14.7 21.1 14.95 20.45 16.05 17.7 19.3 19.15 20.75 19.65 18.55 13.85 19.65 12.85 M-10.2 11.25 L-9.25 9.85 -9.9 7.1 -12.6 3.8 -12.35 2.7 -12.45 3.45 -12.6 3.8 -10.55 5.0 -6.55 11.3 -6.85 11.35 -7.3 11.45 -7.4 12.7 -7.4 12.9 -10.2 11.25 M-2.9 7.75 L0.35 8.65 -0.7 8.45 -2.9 7.75 M11.55 7.75 L11.75 7.7 15.0 7.45 16.35 6.35 15.35 7.8 11.55 7.75 M4.45 12.25 L4.2 12.8 3.25 11.15 3.3 11.15 3.2 11.05 2.65 10.1 4.45 12.25 M8.65 20.2 L8.7 22.95 12.7 25.55 9.65 22.15 8.65 20.2 M0.45 17.9 L-0.55 18.0 -0.65 19.6 3.65 27.6 0.45 17.9 M-14.35 -1.55 L-11.0 -1.25 -11.2 -0.35 -11.2 -1.2 -14.35 -1.55 M-11.3 0.1 L-11.75 2.15 -12.3 2.1 -12.95 2.55 -16.4 -1.15 -11.3 0.1 M-10.25 3.85 L-11.55 3.25 -12.35 2.7 -10.25 3.85 M-10.95 13.55 L-11.9 16.5 -11.3 13.75 -12.0 13.15 -11.4 12.55 -9.35 14.25 -9.45 14.2 -9.65 14.1 -10.4 13.7 Q-10.7 13.55 -10.95 13.45 L-10.95 13.55 M-12.05 17.3 L-12.2 19.45 -12.25 19.85 -12.2 19.8 -12.25 20.25 -12.75 20.5 -12.05 17.3 M-6.3 15.95 L-7.7 16.45 -6.85 21.25 -8.1 18.1 -12.05 20.15 -8.75 14.65 -6.3 15.95 M-2.9 23.4 Q-2.6 23.75 -2.1 23.75 -1.6 23.75 -1.25 23.4 -0.95 23.05 -0.95 22.55 -0.95 22.05 -1.25 21.7 -1.6 21.35 -2.1 21.35 -2.6 21.35 -2.9 21.7 -3.25 22.05 -3.25 22.55 L-2.9 23.4" fill="#7adffd" fill-rule="evenodd" stroke="none"/>
      <path d="M18.85 5.5 L18.7 5.9 15.2 10.1 12.3 9.95 9.8 11.35 9.65 11.35 8.35 11.85 4.3 13.25 4.1 13.25 0.5 11.15 -5.25 11.8 -6.55 11.3 -10.55 5.0 -8.0 6.45 -8.6 5.35 -7.15 7.45 -6.5 7.65 3.25 11.15 4.2 12.8 4.45 12.25 4.65 11.85 Q7.0 10.75 9.45 9.85 12.35 8.75 15.35 7.8 L16.35 6.35 17.25 5.35 Q18.7 4.1 20.35 3.05 L20.4 2.8 20.5 3.75 18.85 5.5 M0.35 8.65 L1.35 9.3 2.65 10.1 3.2 11.05 -0.7 8.45 0.35 8.65 M8.65 20.2 L9.65 22.15 12.7 25.55 8.7 22.95 8.65 20.2 M-4.9 16.5 L-3.55 17.45 Q-3.65 19.7 -4.05 21.95 L-5.0 25.9 -6.3 16.8 -7.45 16.9 -6.65 22.4 -6.85 21.25 -7.7 16.45 -6.3 15.95 -5.85 15.8 -4.9 16.5 M0.45 17.9 L3.65 27.6 -0.65 19.6 -0.55 18.0 0.45 17.9 M-11.55 3.25 L-12.2 2.95 -12.45 3.45 -12.35 2.7 -11.55 3.25 M-11.9 16.5 L-10.95 13.55 -12.2 19.45 -12.05 17.3 -11.9 16.5 M-9.45 14.2 L-9.35 14.25 -8.75 14.65 -12.05 20.15 -12.25 20.35 -12.25 20.25 -12.2 19.8 -9.45 14.2" fill="#b5ecfe" fill-rule="evenodd" stroke="none"/>
      <path d="M25.0 -1.4 L23.3 -0.7 19.3 -1.25 19.2 -1.3 19.3 -1.3 21.4 -1.8 25.0 -1.4 M-3.05 7.75 L-2.9 7.75 -0.7 8.45 3.2 11.05 3.3 11.15 3.25 11.15 -6.5 7.65 -3.05 7.75 M7.35 9.25 Q7.65 9.0 8.0 8.95 L11.55 7.75 15.35 7.8 Q12.35 8.75 9.45 9.85 7.0 10.75 4.65 11.85 L5.25 11.0 7.35 9.25 M-8.6 5.35 L-8.0 6.45 -10.55 5.0 -12.6 3.8 -12.45 3.45 -12.2 2.95 -11.55 3.25 -10.25 3.85 -8.6 5.35 M8.35 11.85 L9.65 11.35 10.05 12.4 8.95 13.0 8.45 12.45 8.35 11.85 M13.75 12.4 L14.15 11.5 15.05 11.6 15.45 11.9 15.4 13.1 14.3 13.05 13.75 12.4 M-0.75 13.4 L0.8 13.65 Q1.3 13.85 1.2 14.15 L0.45 14.6 -0.9 14.75 -1.1 14.25 -0.75 13.4 M3.7 18.75 L4.3 17.75 4.65 17.7 5.2 19.65 3.85 19.65 3.7 18.75 M-5.0 25.9 L-4.95 26.2 -6.65 22.4 -7.45 16.9 -6.3 16.8 -5.0 25.9 M13.8 18.7 L14.25 20.5 12.85 20.8 13.05 18.55 13.8 18.7 M-11.2 -0.35 L-11.3 0.1 -16.4 -1.15 -16.8 -1.8 -14.35 -1.55 -11.2 -1.2 -11.2 -0.35 M-7.4 12.7 L-7.3 11.45 -6.85 11.35 -5.6 12.35 -6.05 13.3 -7.15 13.05 -7.4 12.7 M-12.2 19.45 L-10.95 13.55 -10.95 13.45 Q-10.7 13.55 -10.4 13.7 L-9.65 14.1 -9.45 14.2 -12.2 19.8 -12.25 19.85 -12.2 19.45 M-3.2 22.4 L-2.95 21.8 Q-2.7 21.5 -2.35 21.5 -2.0 21.5 -1.75 21.8 -1.5 22.05 -1.5 22.4 L-1.75 23.05 -2.35 23.3 -2.95 23.05 -3.2 22.4" fill="#fdfeff" fill-rule="evenodd" stroke="none"/>
      <path d="M18.7 11.3 L19.9 10.7 20.05 12.4 19.65 12.85 18.55 13.85 20.75 19.65 19.3 19.15 16.05 17.7 14.95 20.45 13.8 18.7 13.05 18.55 12.85 20.8 13.4 21.5 14.7 21.1 12.95 25.25 8.2 18.3 4.0 28.3 0.8 17.5 -4.9 16.5 -5.85 15.8 -6.3 15.95 -8.75 14.65 -9.35 14.25 -11.4 12.55 -11.5 12.15 -11.35 10.7 Q-10.75 11.0 -10.2 11.25 L-7.4 12.9 -6.9 13.5 -5.8 13.75 -3.2 14.5 -5.05 14.4 Q-3.3 16.0 -1.1 16.8 L1.8 16.55 Q2.95 16.0 3.55 14.95 L2.0 14.85 4.3 14.55 13.9 13.75 6.65 15.5 13.15 17.15 16.35 15.4 19.85 18.5 18.15 12.7 15.1 13.45 16.05 12.95 18.3 11.5 18.7 11.3 M4.3 17.75 L3.9 18.05 3.7 18.75 3.85 19.65 4.35 20.5 5.9 20.0 6.05 19.55 5.35 17.95 4.65 17.7 4.3 17.75" fill="#5fd4f4" fill-rule="evenodd" stroke="none"/>
      <path d="M-6.55 11.3 L-5.25 11.8 -4.9 12.5 -5.8 13.75 -6.9 13.5 -7.4 12.9 -7.4 12.7 -7.15 13.05 -6.05 13.3 -5.6 12.35 -6.85 11.35 -6.55 11.3 M9.65 11.35 L9.8 11.35 10.75 12.6 9.45 13.55 9.0 13.45 8.45 12.45 8.95 13.0 10.05 12.4 9.65 11.35 M15.05 11.6 Q15.45 11.6 15.75 12.0 L16.05 12.95 15.1 13.45 18.15 12.7 19.85 18.5 16.35 15.4 13.15 17.15 6.65 15.5 13.9 13.75 14.4 13.7 14.3 13.65 13.75 12.4 14.3 13.05 15.4 13.1 15.45 11.9 15.05 11.6 M-0.75 13.4 L0.85 13.35 1.15 13.6 Q1.7 14.3 1.4 15.05 L2.0 14.85 3.55 14.95 Q2.95 16.0 1.8 16.55 L-1.1 16.8 Q-3.3 16.0 -5.05 14.4 L-3.2 14.5 -0.75 15.25 -0.9 14.75 0.45 14.6 1.2 14.15 Q1.3 13.85 0.8 13.65 L-0.75 13.4 M3.7 18.75 L3.9 18.05 4.3 17.75 3.7 18.75 M4.65 17.7 L5.35 17.95 6.05 19.55 5.9 20.0 4.35 20.5 3.85 19.65 5.2 19.65 4.65 17.7 M14.95 20.45 L14.7 21.1 13.4 21.5 12.85 20.8 14.25 20.5 13.8 18.7 14.95 20.45 M-2.9 23.4 L-3.25 22.55 Q-3.25 22.05 -2.9 21.7 -2.6 21.35 -2.1 21.35 -1.6 21.35 -1.25 21.7 -0.95 22.05 -0.95 22.55 -0.95 23.05 -1.25 23.4 -1.6 23.75 -2.1 23.75 -2.6 23.75 -2.9 23.4 M-3.2 22.4 L-2.95 23.05 -2.35 23.3 -1.75 23.05 -1.5 22.4 Q-1.5 22.05 -1.75 21.8 -2.0 21.5 -2.35 21.5 -2.7 21.5 -2.95 21.8 L-3.2 22.4" fill="#52b4d0" fill-rule="evenodd" stroke="none"/>
    </g>
  </defs>
</svg>
